assets/img/slider-cards/lect-1.svg

<svg width="100" height="100" viewBox="0 0 100 100" fill="none" xmlns="http://www.w3.org/2000/svg">
<path d="M93.75 21.875V46.875C93.7519 47.492 93.5712 48.0957 93.2306 48.6101C92.89 49.1245 92.4047 49.5266 91.8359 49.7656C91.4505 49.9187 91.0397 49.9982 90.625 50C89.7952 49.9965 88.9983 49.6749 88.3984 49.1016L78.125 38.7891L55.3516 61.6016C54.7591 62.1884 53.9589 62.5176 53.125 62.5176C52.2911 62.5176 51.4909 62.1884 50.8984 61.6016L37.5 48.1641L11.6016 74.1016C11.0017 74.6749 10.2048 74.9965 9.375 75C8.54673 74.9887 7.75257 74.6683 7.14844 74.1016C6.56162 73.5091 6.23242 72.7089 6.23242 71.875C6.23242 71.0411 6.56162 70.2409 7.14844 69.6484L35.2734 41.5234C35.8659 40.9366 36.6661 40.6074 37.5 40.6074C38.3339 40.6074 39.1341 40.9366 39.7266 41.5234L53.125 54.9609L73.7109 34.375L63.3984 24.1016C62.9745 23.6497 62.6872 23.0871 62.5696 22.4788C62.4521 21.8705 62.5092 21.2413 62.7344 20.6641C62.9777 20.0983 63.3807 19.6159 63.8942 19.2759C64.4077 18.9359 65.0092 18.7531 65.625 18.75H90.625C91.4538 18.75 92.2487 19.0792 92.8347 19.6653C93.4208 20.2513 93.75 21.0462 93.75 21.875Z" fill="#00A0E3"/>
</svg>

<svg width="100" height="100" fill="none" xmlns="http://www.w3.org/2000/svg"><path d="M93.75 21.875v25a3.125 3.125 0 01-1.914 2.89 3.32 3.32 0 01-1.211.235 3.243 3.243 0 01-2.227-.898L78.125 38.789 55.352 61.602a3.164 3.164 0 01-4.454 0L37.5 48.164 11.602 74.102c-.6.573-1.397.894-2.227.898a3.32 3.32 0 01-2.227-.898 3.164 3.164 0 010-4.454l28.125-28.125a3.164 3.164 0 014.454 0l13.398 13.438 20.586-20.586-10.313-10.273a3.283 3.283 0 01-.664-3.438 3.164 3.164 0 012.891-1.914h25a3.125 3.125 0 013.125 3.125z" fill="#00A0E3"/></svg>
